src/images/logo.svg

<svg width="339" height="175" viewBox="0 0 339 175" fill="none" xmlns="http://www.w3.org/2000/svg">
  <circle cx="71.5" cy="71.5" r="71.5" fill="#AF0B14"/>
  <path d="M214.416 132.96c-2.208-.192-9.648 4.368-10.272 6.624-.192.816.96 1.584 1.44 2.016 7.68-4.32 13.824-5.376 14.448-5.376.096 0 .288.096.288.24.432.144-9.072 2.64-14.304 5.76.624.48 1.824 1.872 1.68 2.88-.672 3.12-7.008 5.664-10.128 5.664-1.056 0-1.584-.864-1.824-1.92.144-2.064 7.2-6.096 8.88-6.768-.528-.672-3.36-2.4-2.928-4.512.768-3.648 7.68-7.248 11.904-7.248 1.344 0 1.968 2.208 1.824 3.6-.048.672-3.072 3.552-4.368 3.552-.048 0-.144-.192-.096-.192.144 0 3.36-3.36 3.456-4.32Zm-9.6 9.936c-2.88 1.632-6.432 4.032-7.824 5.424 1.872-.528 7.824-3.6 7.824-5.424Zm20.506-19.824c3.744-4.896 5.088-6.432 6.288-7.392.72-.576 1.344-.96 1.776-.96 2.688-.144 4.608 2.64 3.696 2.112-1.536-.72-4.368 3.12-6.48 5.856 7.728-.384 17.856 0 24.72 1.44.384.096.576.192 0 .144-9.504-.816-18.288-.768-26.304.432-1.776 2.208-3.36 4.608-5.28 7.44-4.176 6.336-7.776 12.432-8.928 15.504 2.064.24 10.032-7.584 12.864-10.176.288-.24.48.144.336.288-2.352 2.688-10.704 11.424-13.584 12.48-.624.24-1.104.048-1.536-.192-.384-.192-1.44-1.2-1.728-1.92-.048-.096-.144-.192-.144-.72 0-1.44 2.16-6.144 8.064-15.264 1.296-1.968 2.688-4.08 4.464-6.432-4.56.912-7.392 3.216-6.144 3.936-.768 0-2.4-.912-2.544-2.448-.192-2.16 5.088-3.504 10.464-4.128Zm2.226 14.16c1.68-2.448 3.744-4.896 4.944-5.856.288-.192.48-.24.672-.24 1.152 0 2.976 1.872 2.976 3.072 0 .192-.144-.048-.528-.096-.72-.048-2.4 1.824-3.84 3.744-1.296 1.728-2.976 3.984-3.984 5.76 2.544-3.312 7.344-7.344 11.472-10.32 1.872-1.344 3.312-2.16 4.32-2.256.528-.048 2.496 2.016 2.16 2.4-1.056 1.104-5.04 4.608-6.624 8.352 2.304-.192 5.616-2.352 8.592-4.992.048-.048.336-.096.384 0-.864 1.152-6.624 6.528-9.936 6.528-.864 0-2.304-1.68-2.304-2.256 0-1.344 1.536-4.128 2.784-5.568-4.416 2.592-6.672 4.512-9.936 8.112-2.448 2.64-5.328 6.864-4.272 7.344-1.392.336-2.544-1.152-2.88-2.496-.096-.432.144-1.344.72-2.448 1.2-2.736 3.36-6.048 5.28-8.784ZM262.839 132c-.48-.048-.864-.144-1.2-.144-8.688 0-18.72 16.176-16.032 17.328 2.688 1.104 9.552-6.576 12.768-11.472-.24-.432-.72-1.872-.528-2.352.144-.48 1.584-1.92 2.208-1.968.48-.048 1.008.336 1.104.48.912 1.488 2.064 2.592 3.984 2.448 3.216-.288 4.992-2.16 5.52-2.112-.24.672-2.16 2.256-4.512 3.024a9.457 9.457 0 0 1-2.832.432c-.72 0-1.2-.096-1.44-.192-1.296 6.384-11.232 13.296-16.32 13.008-2.208-.144-3.648-1.968-3.648-3.792 0-7.824 10.512-15.648 18.096-15.648 1.824 0 2.592.528 2.928.816.24.144.096.144-.096.144Zm.886 6.432c.288-.768 1.2-1.152 2.112-1.344 3.312-5.568 6.72-10.464 9.792-14.544 2.448-3.264 4.512-5.616 6.048-6.864.816-.624 1.44-.864 1.824-.864 2.784 0 4.608 2.832 3.744 2.304-1.296-.624-3.12 1.2-5.952 4.464-.528.624-2.88 3.648-2.88 3.648-2.88 3.648-6.48 9.12-9.024 13.2 3.792-4.032 9.552-8.496 11.904-8.496 1.056 0 2.304 2.016 2.304 3.024 0 3.552-9.792 9.744-15.12 9.264 2.064 5.328 8.4 12.672 14.688 12.672 1.68 0 3.36-.528 4.944-1.728.144-.144.528-.096.288.144-2.016 1.92-4.272 2.736-6.576 2.736-6.192 0-12.672-5.952-15.936-11.568-1.152 2.16-3.792 5.856-1.632 6.096-.576.24-1.104.048-1.584-.24-.336-.144-1.296-1.152-1.68-1.92-.096-.384-.096-1.968 1.44-5.088.432-.96.96-1.92 1.44-2.88-.192-.768-.336-1.488-.144-2.016ZM279.517 132c-3.312.816-10.992 8.016-11.472 8.688.096.48.192.816.288.96 4.224-.576 9.744-6.768 11.184-9.648Zm4.707 11.52c-.864 1.008-1.776 2.544-1.92 3.792-.048.576.384.912 1.44.912 3.504 0 12.288-6.672 17.136-10.704.144-.096.48.144.336.288-3.6 3.36-13.152 12.528-19.536 12.528-1.488 0-3.408-1.728-3.408-3.024 0-1.152.288-2.112.672-3.168 1.152-2.736 3.6-5.76 6.624-8.304 3.984-3.312 8.256-4.8 10.32-4.8.72 0 2.928 1.104 2.928 2.448 0 2.976-9.216 9.888-14.592 10.032Zm13.056-11.04c-5.328 1.728-10.848 7.536-12.432 10.08 4.176-.48 12.144-8.256 12.432-10.08Zm15.058.48c-2.208-.192-9.648 4.368-10.272 6.624-.192.816.96 1.584 1.44 2.016 7.68-4.32 13.824-5.376 14.448-5.376.096 0 .288.096.288.24.432.144-9.072 2.64-14.304 5.76.624.48 1.824 1.872 1.68 2.88-.672 3.12-7.008 5.664-10.128 5.664-1.056 0-1.584-.864-1.824-1.92.144-2.064 7.2-6.096 8.88-6.768-.528-.672-3.36-2.4-2.928-4.512.768-3.648 7.68-7.248 11.904-7.248 1.344 0 1.968 2.208 1.824 3.6-.048.672-3.072 3.552-4.368 3.552-.048 0-.144-.192-.096-.192.144 0 3.36-3.36 3.456-4.32Zm-9.6 9.936c-2.88 1.632-6.432 4.032-7.824 5.424 1.872-.528 7.824-3.6 7.824-5.424Z" fill="#000"/>
  <path d="M114.856 58.94c-.504 9.66-14.112 20.412-23.436 20.412-1.848 0-3.78-1.932-3.612-3.612.084-1.68 4.116-4.956 5.964-5.628-1.176 1.176-2.856 3.864-2.184 3.864 3.36 0 20.916-9.324 21.252-17.052.168-4.788-5.46-5.628-9.324-5.628-14.028 0-36.624 18.228-36.792 26.208-.084 7.56 12.012 9.072 17.808 9.072.84 0-1.428 4.032-3.78 4.032-15.372 0-44.184 22.092-44.436 33.18-.084 3.36 2.1 5.628 6.888 6.132 16.632 1.848 52.668-21.756 67.62-33.936.168 0 .336.588.168.756-10.08 9.744-47.796 39.564-69.888 39.06-8.232-.168-13.524-5.544-12.684-12.012 2.016-17.052 32.508-32.592 44.436-33.684-4.2-.504-14.448-4.284-13.44-12.432 1.932-14.868 27.216-28.476 42.756-28.476 6.048 0 13.188 1.26 12.684 9.744Zm-4.6 28.812c5.208-8.148 10.584-15.456 14.952-21.168 2.52-3.276 4.872-5.964 6.972-7.644 1.26-1.008 2.352-1.68 3.108-1.68 4.704-.252 8.064 4.62 6.468 3.696-2.94-1.344-8.4 6.552-12.096 11.088-3.612 4.62-7.056 9.576-11.256 15.708-7.308 11.088-13.608 21.756-15.624 27.132 3.612.42 17.556-13.272 22.512-17.808.504-.42.84.252.588.504-4.116 4.704-18.732 19.992-23.772 21.84-1.092.42-1.932.084-2.688-.336-.672-.336-2.52-2.1-3.024-3.36-.084-.168-.252-.336-.252-1.26 0-2.52 3.864-10.668 14.112-26.712Zm15.726 19.908c-1.512 1.764-3.108 4.452-3.36 6.636-.084 1.008.672 1.596 2.52 1.596 6.132 0 21.504-11.676 29.988-18.732.252-.168.84.252.588.504-6.3 5.88-23.016 21.924-34.188 21.924-2.604 0-5.964-3.024-5.964-5.292 0-2.016.504-3.696 1.176-5.544 2.016-4.788 6.3-10.08 11.592-14.532 6.972-5.796 14.448-8.4 18.06-8.4 1.26 0 5.124 1.932 5.124 4.284 0 5.208-16.128 17.304-25.536 17.556Zm22.848-19.32c-9.324 3.024-18.984 13.188-21.756 17.64 7.308-.84 21.252-14.448 21.756-17.64Zm31.643 14.112-5.124 9.492c1.848-.672 3.696-1.344 5.544-1.932 1.344-.42 2.688-.168 1.512.252-2.688 1.092-5.376 2.268-7.98 3.36-10.752 18.732-24.612 39.816-40.74 44.1-.924.252-1.848.336-2.772.336-3.108 0-5.712-1.428-5.712-4.956 0-.924.168-2.016.588-3.276 3.36-10.668 19.908-24.276 39.228-33.516 1.848-3.192 8.904-15.876 8.904-15.876.084-.084-2.016 1.428-3.612 2.856-1.26 1.176-5.88 5.292-10.584 8.988-4.788 3.696-9.744 7.308-11.508 7.308-.168 0-.588-.084-.84-.252-1.512-.924-3.612-3.948-3.612-5.628 0-9.156 19.32-27.888 34.692-27.888 3.276 0 7.476 1.344 7.476 5.292 0 1.428-.84 2.856-1.596 3.948-.168.084-.252 0-.168-.084.336-.756.84-1.764.84-3.024 0-2.52-1.596-3.78-4.116-3.612-4.872.252-10.92 3.78-16.464 8.4-7.98 6.804-14.112 17.136-13.272 17.808.336.336 3.696-1.848 7.392-4.284 4.032-2.688 7.98-5.796 10.752-8.148 5.796-4.872 7.056-6.132 8.484-6.804 1.596-.756 5.124 3.78 4.788 4.788-.252-.252-.672-.504-2.1 2.352Zm-45.36 49.14c9.828-5.292 19.824-18.816 28.392-32.676-15.288 8.064-26.964 17.64-32.844 28.56-.924 1.68-1.344 2.856-1.344 3.696 0 1.176.756 1.596 1.848 1.596 1.176 0 2.604-.504 3.948-1.176Zm67.08-39.564c1.008-3.108 3.276-6.972 4.872-9.072-2.52 2.52-18.9 16.632-22.428 16.632-.168 0-.588-.168-.756-.252-1.512-.756-3.696-3.948-3.696-5.628 0-9.156 19.236-27.888 34.692-27.888 3.192 0 7.392 1.344 7.392 5.292 0 1.428-.756 2.856-1.596 3.948-.168.084-.336 0-.252-.084.42-.756.924-1.764.924-3.024 0-2.52-1.596-3.78-4.116-3.612-4.872.252-11.004 3.78-16.464 8.4-7.98 6.804-14.28 17.388-13.524 17.808.168.084.336.084.588 0 2.772-.924 14.532-9.408 18.9-13.104 1.512-1.344 6.972-6.636 9.072-7.812 1.68-.84 4.536 3.78 4.2 4.788-.42-.84-7.98 8.316-10.5 13.692-.504 1.176-.84 2.184-.84 2.856 5.292-1.512 17.304-13.02 22.512-17.892.42-.42.84.252.588.504-7.308 7.98-21 22.008-26.04 22.008-.42 0-.84-.168-1.428-.504-1.176-.672-2.772-2.436-2.772-3.948 0-.84.336-1.848.672-3.108ZM263.664 91.7c-2.1 1.68-15.12 19.404-15.288 23.352 5.292-1.428 17.304-12.936 22.68-17.976.504-.42.924.252.672.504-7.308 7.98-21 21.84-26.04 21.84-.84 0-1.764-.756-2.604-1.764-.924-1.092-1.512-2.352-1.512-3.276 0-4.788 9.744-18.816 14.112-22.764-6.888 3.108-19.236 13.272-25.452 19.992-1.092 1.092-2.1 2.352-3.024 3.528-2.268 2.688-2.856 4.956-1.596 5.544-2.52.588-4.536-2.1-5.208-4.536-.168-.588.252-2.856 2.352-6.72 2.016-3.948 5.208-8.904 7.98-12.768 3.024-4.284 6.72-8.736 8.904-10.416.336-.336.84-.42 1.092-.42 2.1 0 5.292 3.276 5.292 5.376 0 .336-.336-.084-1.008-.168-1.092-.084-4.2 3.444-6.72 6.72-3.948 5.208-8.316 11.424-9.576 13.776.924-1.344 2.52-3.024 4.284-4.704 9.408-9.24 24.192-20.58 27.048-20.58 2.016 0 4.704 4.536 3.612 5.46Zm21.739-19.824c6.552-8.568 8.904-11.256 11.004-12.936 1.26-1.008 2.352-1.68 3.108-1.68 4.704-.252 8.064 4.62 6.468 3.696-2.688-1.26-7.644 5.46-11.34 10.248 13.524-.672 31.248 0 43.26 2.52.672.168 1.008.336 0 .252-16.632-1.428-32.004-1.344-46.032.756-3.108 3.864-5.88 8.064-9.24 13.02-7.308 11.088-13.608 21.756-15.624 27.132 3.612.42 17.556-13.272 22.512-17.808.504-.42.84.252.588.504-4.116 4.704-18.732 19.992-23.772 21.84-1.092.42-1.932.084-2.688-.336-.672-.336-2.52-2.1-3.024-3.36-.084-.168-.252-.336-.252-1.26 0-2.52 3.78-10.752 14.112-26.712 2.268-3.444 4.704-7.14 7.812-11.256-7.98 1.596-12.936 5.628-10.752 6.888-1.344 0-4.2-1.596-4.452-4.284-.336-3.78 8.904-6.132 18.312-7.224Z" fill="#000"/>
</svg>

<svg 
width="339" 
height="175" 
viewBox="0 0 339 175" 
fill="none" 
xmlns="http://www.w3.org/2000/svg">

<circle 
cx="71.5" 
cy="71.5" 
r="71.5" 
fill="#AF0B14"/>

<path 
d="M214.416 132.96C212.208 132.768 204.768 137.328 204.144 139.584C203.952 140.4 205.104 141.168 205.584 141.6C213.264 137.28 219.408 136.224 220.032 136.224C220.128 136.224 220.32 136.32 220.32 136.464C220.752 136.608 211.248 139.104 206.016 142.224C206.64 142.704 207.84 144.096 207.696 145.104C207.024 148.224 200.688 150.768 197.568 150.768C196.512 150.768 195.984 149.904 195.744 148.848C195.888 146.784 202.944 142.752 204.624 142.08C204.096 141.408 201.264 139.68 201.696 137.568C202.464 133.92 209.376 130.32 213.6 130.32C214.944 130.32 215.568 132.528 215.424 133.92C215.376 134.592 212.352 137.472 211.056 137.472C211.008 137.472 210.912 137.28 210.96 137.28C211.104 137.28 214.32 133.92 214.416 132.96ZM204.816 142.896C201.936 144.528 198.384 146.928 196.992 148.32C198.864 147.792 204.816 144.72 204.816 142.896ZM225.322 123.072C229.066 118.176 230.41 116.64 231.61 115.68C232.33 115.104 232.954 114.72 233.386 114.72C236.074 114.576 237.994 117.36 237.082 116.832C235.546 116.112 232.714 119.952 230.602 122.688C238.33 122.304 248.458 122.688 255.322 124.128C255.706 124.224 255.898 124.32 255.322 124.272C245.818 123.456 237.034 123.504 229.018 124.704C227.242 126.912 225.658 129.312 223.738 132.144C219.562 138.48 215.962 144.576 214.81 147.648C216.874 147.888 224.842 140.064 227.674 137.472C227.962 137.232 228.154 137.616 228.01 137.76C225.658 140.448 217.306 149.184 214.426 150.24C213.802 150.48 213.322 150.288 212.89 150.048C212.506 149.856 211.45 148.848 211.162 148.128C211.114 148.032 211.018 147.936 211.018 147.408C211.018 145.968 213.178 141.264 219.082 132.144C220.378 130.176 221.77 128.064 223.546 125.712C218.986 126.624 216.154 128.928 217.402 129.648C216.634 129.648 215.002 128.736 214.858 127.2C214.666 125.04 219.946 123.696 225.322 123.072ZM227.548 137.232C229.228 134.784 231.292 132.336 232.492 131.376C232.78 131.184 232.972 131.136 233.164 131.136C234.316 131.136 236.14 133.008 236.14 134.208C236.14 134.4 235.996 134.16 235.612 134.112C234.892 134.064 233.212 135.936 231.772 137.856C230.476 139.584 228.796 141.84 227.788 143.616C230.332 140.304 235.132 136.272 239.26 133.296C241.132 131.952 242.572 131.136 243.58 131.04C244.108 130.992 246.076 133.056 245.74 133.44C244.684 134.544 240.7 138.048 239.116 141.792C241.42 141.6 244.732 139.44 247.708 136.8C247.756 136.752 248.044 136.704 248.092 136.8C247.228 137.952 241.468 143.328 238.156 143.328C237.292 143.328 235.852 141.648 235.852 141.072C235.852 139.728 237.388 136.944 238.636 135.504C234.22 138.096 231.964 140.016 228.7 143.616C226.252 146.256 223.372 150.48 224.428 150.96C223.036 151.296 221.884 149.808 221.548 148.464C221.452 148.032 221.692 147.12 222.268 146.016C223.468 143.28 225.628 139.968 227.548 137.232ZM262.839 132C262.359 131.952 261.975 131.856 261.639 131.856C252.951 131.856 242.919 148.032 245.607 149.184C248.295 150.288 255.159 142.608 258.375 137.712C258.135 137.28 257.655 135.84 257.847 135.36C257.991 134.88 259.431 133.44 260.055 133.392C260.535 133.344 261.063 133.728 261.159 133.872C262.071 135.36 263.223 136.464 265.143 136.32C268.359 136.032 270.135 134.16 270.663 134.208C270.423 134.88 268.503 136.464 266.151 137.232C265.095 137.568 264.087 137.664 263.319 137.664C262.599 137.664 262.119 137.568 261.879 137.472C260.583 143.856 250.647 150.768 245.559 150.48C243.351 150.336 241.911 148.512 241.911 146.688C241.911 138.864 252.423 131.04 260.007 131.04C261.831 131.04 262.599 131.568 262.935 131.856C263.175 132 263.031 132 262.839 132ZM263.725 138.432C264.013 137.664 264.925 137.28 265.837 137.088C269.149 131.52 272.557 126.624 275.629 122.544C278.077 119.28 280.141 116.928 281.677 115.68C282.493 115.056 283.117 114.816 283.501 114.816C286.285 114.816 288.109 117.648 287.245 117.12C285.949 116.496 284.125 118.32 281.293 121.584C280.765 122.208 278.413 125.232 278.413 125.232C275.533 128.88 271.933 134.352 269.389 138.432C273.181 134.4 278.941 129.936 281.293 129.936C282.349 129.936 283.597 131.952 283.597 132.96C283.597 136.512 273.805 142.704 268.477 142.224C270.541 147.552 276.877 154.896 283.165 154.896C284.845 154.896 286.525 154.368 288.109 153.168C288.253 153.024 288.637 153.072 288.397 153.312C286.381 155.232 284.125 156.048 281.821 156.048C275.629 156.048 269.149 150.096 265.885 144.48C264.733 146.64 262.093 150.336 264.253 150.576C263.677 150.816 263.149 150.624 262.669 150.336C262.333 150.192 261.373 149.184 260.989 148.416C260.893 148.032 260.893 146.448 262.429 143.328C262.861 142.368 263.389 141.408 263.869 140.448C263.677 139.68 263.533 138.96 263.725 138.432ZM279.517 132C276.205 132.816 268.525 140.016 268.045 140.688C268.141 141.168 268.237 141.504 268.333 141.648C272.557 141.072 278.077 134.88 279.517 132ZM284.224 143.52C283.36 144.528 282.448 146.064 282.304 147.312C282.256 147.888 282.688 148.224 283.744 148.224C287.248 148.224 296.032 141.552 300.88 137.52C301.024 137.424 301.36 137.664 301.216 137.808C297.616 141.168 288.064 150.336 281.68 150.336C280.192 150.336 278.272 148.608 278.272 147.312C278.272 146.16 278.56 145.2 278.944 144.144C280.096 141.408 282.544 138.384 285.568 135.84C289.552 132.528 293.824 131.04 295.888 131.04C296.608 131.04 298.816 132.144 298.816 133.488C298.816 136.464 289.6 143.376 284.224 143.52ZM297.28 132.48C291.952 134.208 286.432 140.016 284.848 142.56C289.024 142.08 296.992 134.304 297.28 132.48ZM312.338 132.96C310.13 132.768 302.69 137.328 302.066 139.584C301.874 140.4 303.026 141.168 303.506 141.6C311.186 137.28 317.33 136.224 317.954 136.224C318.05 136.224 318.242 136.32 318.242 136.464C318.674 136.608 309.17 139.104 303.938 142.224C304.562 142.704 305.762 144.096 305.618 145.104C304.946 148.224 298.61 150.768 295.49 150.768C294.434 150.768 293.906 149.904 293.666 148.848C293.81 146.784 300.866 142.752 302.546 142.08C302.018 141.408 299.186 139.68 299.618 137.568C300.386 133.92 307.298 130.32 311.522 130.32C312.866 130.32 313.49 132.528 313.346 133.92C313.298 134.592 310.274 137.472 308.978 137.472C308.93 137.472 308.834 137.28 308.882 137.28C309.026 137.28 312.242 133.92 312.338 132.96ZM302.738 142.896C299.858 144.528 296.306 146.928 294.914 148.32C296.786 147.792 302.738 144.72 302.738 142.896Z" 
fill="black"/>

<path 
d="M114.856 58.94C114.352 68.6 100.744 79.352 91.42 79.352C89.572 79.352 87.64 77.42 87.808 75.74C87.892 74.06 91.924 70.784 93.772 70.112C92.596 71.288 90.916 73.976 91.588 73.976C94.948 73.976 112.504 64.652 112.84 56.924C113.008 52.136 107.38 51.296 103.516 51.296C89.488 51.296 66.892 69.524 66.724 77.504C66.64 85.064 78.736 86.576 84.532 86.576C85.372 86.576 83.104 90.608 80.752 90.608C65.38 90.608 36.568 112.7 36.316 123.788C36.232 127.148 38.416 129.416 43.204 129.92C59.836 131.768 95.872 108.164 110.824 95.984C110.992 95.984 111.16 96.572 110.992 96.74C100.912 106.484 63.196 136.304 41.104 135.8C32.872 135.632 27.58 130.256 28.42 123.788C30.436 106.736 60.928 91.196 72.856 90.104C68.656 89.6 58.408 85.82 59.416 77.672C61.348 62.804 86.632 49.196 102.172 49.196C108.22 49.196 115.36 50.456 114.856 58.94ZM110.256 87.752C115.464 79.604 120.84 72.296 125.208 66.584C127.728 63.308 130.08 60.62 132.18 58.94C133.44 57.932 134.532 57.26 135.288 57.26C139.992 57.008 143.352 61.88 141.756 60.956C138.816 59.612 133.356 67.508 129.66 72.044C126.048 76.664 122.604 81.62 118.404 87.752C111.096 98.84 104.796 109.508 102.78 114.884C106.392 115.304 120.336 101.612 125.292 97.076C125.796 96.656 126.132 97.328 125.88 97.58C121.764 102.284 107.148 117.572 102.108 119.42C101.016 119.84 100.176 119.504 99.4203 119.084C98.7483 118.748 96.9003 116.984 96.3963 115.724C96.3123 115.556 96.1443 115.388 96.1443 114.464C96.1443 111.944 100.008 103.796 110.256 87.752ZM125.982 107.66C124.47 109.424 122.874 112.112 122.622 114.296C122.538 115.304 123.294 115.892 125.142 115.892C131.274 115.892 146.646 104.216 155.13 97.16C155.382 96.992 155.97 97.412 155.718 97.664C149.418 103.544 132.702 119.588 121.53 119.588C118.926 119.588 115.566 116.564 115.566 114.296C115.566 112.28 116.07 110.6 116.742 108.752C118.758 103.964 123.042 98.672 128.334 94.22C135.306 88.424 142.782 85.82 146.394 85.82C147.654 85.82 151.518 87.752 151.518 90.104C151.518 95.312 135.39 107.408 125.982 107.66ZM148.83 88.34C139.506 91.364 129.846 101.528 127.074 105.98C134.382 105.14 148.326 91.532 148.83 88.34ZM180.473 102.452L175.349 111.944C177.197 111.272 179.045 110.6 180.893 110.012C182.237 109.592 183.581 109.844 182.405 110.264C179.717 111.356 177.029 112.532 174.425 113.624C163.673 132.356 149.813 153.44 133.685 157.724C132.761 157.976 131.837 158.06 130.913 158.06C127.805 158.06 125.201 156.632 125.201 153.104C125.201 152.18 125.369 151.088 125.789 149.828C129.149 139.16 145.697 125.552 165.017 116.312C166.865 113.12 173.921 100.436 173.921 100.436C174.005 100.352 171.905 101.864 170.309 103.292C169.049 104.468 164.429 108.584 159.725 112.28C154.937 115.976 149.981 119.588 148.217 119.588C148.049 119.588 147.629 119.504 147.377 119.336C145.865 118.412 143.765 115.388 143.765 113.708C143.765 104.552 163.085 85.82 178.457 85.82C181.733 85.82 185.933 87.164 185.933 91.112C185.933 92.54 185.093 93.968 184.337 95.06C184.169 95.144 184.085 95.06 184.169 94.976C184.505 94.22 185.009 93.212 185.009 91.952C185.009 89.432 183.413 88.172 180.893 88.34C176.021 88.592 169.973 92.12 164.429 96.74C156.449 103.544 150.317 113.876 151.157 114.548C151.493 114.884 154.853 112.7 158.549 110.264C162.581 107.576 166.529 104.468 169.301 102.116C175.097 97.244 176.357 95.984 177.785 95.312C179.381 94.556 182.909 99.092 182.573 100.1C182.321 99.848 181.901 99.596 180.473 102.452ZM135.113 151.592C144.941 146.3 154.937 132.776 163.505 118.916C148.217 126.98 136.541 136.556 130.661 147.476C129.737 149.156 129.317 150.332 129.317 151.172C129.317 152.348 130.073 152.768 131.165 152.768C132.341 152.768 133.769 152.264 135.113 151.592ZM202.193 112.028C203.201 108.92 205.469 105.056 207.065 102.956C204.545 105.476 188.165 119.588 184.637 119.588C184.469 119.588 184.049 119.42 183.881 119.336C182.369 118.58 180.185 115.388 180.185 113.708C180.185 104.552 199.421 85.82 214.877 85.82C218.069 85.82 222.269 87.164 222.269 91.112C222.269 92.54 221.513 93.968 220.673 95.06C220.505 95.144 220.337 95.06 220.421 94.976C220.841 94.22 221.345 93.212 221.345 91.952C221.345 89.432 219.749 88.172 217.229 88.34C212.357 88.592 206.225 92.12 200.765 96.74C192.785 103.544 186.485 114.128 187.241 114.548C187.409 114.632 187.577 114.632 187.829 114.548C190.601 113.624 202.361 105.14 206.729 101.444C208.241 100.1 213.701 94.808 215.801 93.632C217.481 92.792 220.337 97.412 220.001 98.42C219.581 97.58 212.021 106.736 209.501 112.112C208.997 113.288 208.661 114.296 208.661 114.968C213.953 113.456 225.965 101.948 231.173 97.076C231.593 96.656 232.013 97.328 231.761 97.58C224.453 105.56 210.761 119.588 205.721 119.588C205.301 119.588 204.881 119.42 204.293 119.084C203.117 118.412 201.521 116.648 201.521 115.136C201.521 114.296 201.857 113.288 202.193 112.028ZM263.664 91.7C261.564 93.38 248.544 111.104 248.376 115.052C253.668 113.624 265.68 102.116 271.056 97.076C271.56 96.656 271.98 97.328 271.728 97.58C264.42 105.56 250.728 119.42 245.688 119.42C244.848 119.42 243.924 118.664 243.084 117.656C242.16 116.564 241.572 115.304 241.572 114.38C241.572 109.592 251.316 95.564 255.684 91.616C248.796 94.724 236.448 104.888 230.232 111.608C229.14 112.7 228.132 113.96 227.208 115.136C224.94 117.824 224.352 120.092 225.612 120.68C223.092 121.268 221.076 118.58 220.404 116.144C220.236 115.556 220.656 113.288 222.756 109.424C224.772 105.476 227.964 100.52 230.736 96.656C233.76 92.372 237.456 87.92 239.64 86.24C239.976 85.904 240.48 85.82 240.732 85.82C242.832 85.82 246.024 89.096 246.024 91.196C246.024 91.532 245.688 91.112 245.016 91.028C243.924 90.944 240.816 94.472 238.296 97.748C234.348 102.956 229.98 109.172 228.72 111.524C229.644 110.18 231.24 108.5 233.004 106.82C242.412 97.58 257.196 86.24 260.052 86.24C262.068 86.24 264.756 90.776 263.664 91.7ZM285.403 71.876C291.955 63.308 294.307 60.62 296.407 58.94C297.667 57.932 298.759 57.26 299.515 57.26C304.219 57.008 307.579 61.88 305.983 60.956C303.295 59.696 298.339 66.416 294.643 71.204C308.167 70.532 325.891 71.204 337.903 73.724C338.575 73.892 338.911 74.06 337.903 73.976C321.271 72.548 305.899 72.632 291.871 74.732C288.763 78.596 285.991 82.796 282.631 87.752C275.323 98.84 269.023 109.508 267.007 114.884C270.619 115.304 284.563 101.612 289.519 97.076C290.023 96.656 290.359 97.328 290.107 97.58C285.991 102.284 271.375 117.572 266.335 119.42C265.243 119.84 264.403 119.504 263.647 119.084C262.975 118.748 261.127 116.984 260.623 115.724C260.539 115.556 260.371 115.388 260.371 114.464C260.371 111.944 264.151 103.712 274.483 87.752C276.751 84.308 279.187 80.612 282.295 76.496C274.315 78.092 269.359 82.124 271.543 83.384C270.199 83.384 267.343 81.788 267.091 79.1C266.755 75.32 275.995 72.968 285.403 71.876Z" 
fill="black"/>
</svg>
